app/icons/logo.svg

<svg width="160" height="23" viewBox="0 0 160 23" fill="none" xmlns="http://www.w3.org/2000/svg">
<path fill-rule="evenodd" clip-rule="evenodd" d="M4.19775 11.3637H9.14674C10.7336 11.3637 11.9444 11.0316 12.7801 10.3665C13.6155 9.70092 14.0328 8.71468 14.0328 7.4048C14.0328 6.11474 13.6155 5.14807 12.7801 4.50255C11.9444 3.85802 10.7336 3.53563 9.14674 3.53563H4.19775V11.3637ZM13.7201 21.157L9.93007 14.9005C9.76263 14.9206 9.50171 14.9303 9.1468 14.9303H4.19781V21.157H0V0H9.1468C11.9866 0 14.1787 0.634619 15.725 1.90361C17.2697 3.17285 18.0427 4.96619 18.0427 7.28313C18.0427 8.93596 17.6719 10.3467 16.9307 11.5148C16.1888 12.6832 15.1086 13.5602 13.6887 14.1445L18.5124 21.157H13.7201Z" transform="translate(93 1)" fill="white"/>
<mask id="mask0" mask-type="alpha" maskUnits="userSpaceOnUse" x="136" y="0" width="23" height="23">
<path fill-rule="evenodd" clip-rule="evenodd" d="M0 0H22.702V22.403H0V0Z" transform="translate(136.002 0.0763092)" fill="white"/>
</mask>
<g mask="url(#mask0)">
<path fill-rule="evenodd" clip-rule="evenodd" d="M7.79058 4.72117C6.67484 5.37537 5.79214 6.2679 5.14346 7.39979C4.49377 8.53218 4.16943 9.78336 4.16943 11.1551C4.16943 12.5258 4.49951 13.7821 5.15867 14.9242C5.81759 16.0679 6.70029 16.9706 7.80605 17.635C8.9118 18.3005 10.1136 18.6326 11.412 18.6326C12.6904 18.6326 13.8772 18.3005 14.9725 17.635C16.0683 16.9706 16.9355 16.0679 17.5747 14.9242C18.2134 13.7821 18.533 12.5258 18.533 11.1551C18.533 9.78336 18.2134 8.53218 17.5747 7.39979C16.9355 6.2679 16.0683 5.37537 14.9725 4.72117C13.8772 4.06671 12.6904 3.73846 11.412 3.73846C10.1136 3.73846 8.90631 4.06671 7.79058 4.72117ZM17.1177 1.46422C18.8525 2.44156 20.2169 3.78164 21.2107 5.48419C22.2049 7.187 22.7021 9.07731 22.7021 11.1551C22.7021 13.2316 22.2049 15.1271 21.2107 16.8411C20.2169 18.5539 18.8525 19.9093 17.1177 20.9071C15.3835 21.9036 13.4612 22.4032 11.3509 22.4032C9.24098 22.4032 7.31938 21.9036 5.58441 20.9071C3.84968 19.9093 2.4852 18.5539 1.49147 16.8411C0.49724 15.1271 0 13.2316 0 11.1551C0 9.07731 0.49724 7.187 1.49147 5.48419C2.4852 3.78164 3.84968 2.44156 5.58441 1.46422C7.31938 0.489181 9.24098 0 11.3509 0C13.4612 0 15.3835 0.489181 17.1177 1.46422Z" transform="translate(136.002 0.0763092)" fill="white"/>
</g>
<path fill-rule="evenodd" clip-rule="evenodd" d="M9.21369 0L0 21.157H4.1718L6.0323 16.6842H16.2969L18.1579 21.157H22.4793L13.3855 0H9.21369ZM11.1944 4.3217L14.8564 13.2075H7.47266L11.1944 4.3217Z" transform="translate(0 1)" fill="white"/>
<path fill-rule="evenodd" clip-rule="evenodd" d="M13.3287 0L3.96902 10.5485V0H0V21.157H3.96902V15.7472L7.22725 12.0894L13.7432 21.157H18.5124L10.0406 8.94598L18.0087 0H13.3287Z" transform="translate(48 1)" fill="white"/>
</svg>

<svg xmlns="http://www.w3.org/2000/svg" viewBox="0 0 158.704 22.403">
  <defs>
    <style>
      .cls-1 {
        fill: #fff;
        fill-rule: evenodd;
      }
    </style>
  </defs>
  <g id="logo" transform="translate(0 -0.076)">
    <path id="Path_1" data-name="Path 1" class="cls-1" d="M4.2,11.364H9.147a5.726,5.726,0,0,0,3.633-1A3.558,3.558,0,0,0,14.033,7.4,3.438,3.438,0,0,0,12.78,4.5a5.859,5.859,0,0,0-3.633-.967H4.2Zm9.522,9.793L9.93,14.9a7.292,7.292,0,0,1-.783.03H4.2v6.227H0V0H9.147a10.11,10.11,0,0,1,6.578,1.9,6.571,6.571,0,0,1,2.318,5.38,7.737,7.737,0,0,1-1.112,4.232,6.755,6.755,0,0,1-3.242,2.63l4.824,7.012Z" transform="translate(93 1)"/>
    <path id="Path_2" data-name="Path 2" class="cls-1" d="M7.791,4.721A7.2,7.2,0,0,0,5.143,7.4a7.41,7.41,0,0,0-.974,3.755,7.518,7.518,0,0,0,3.637,6.48,6.865,6.865,0,0,0,3.606,1,6.732,6.732,0,0,0,3.561-1,7.241,7.241,0,0,0,2.6-2.711,7.591,7.591,0,0,0,.958-3.769A7.51,7.51,0,0,0,17.575,7.4a7.163,7.163,0,0,0-2.6-2.679,6.819,6.819,0,0,0-3.561-.983A7.035,7.035,0,0,0,7.791,4.721Zm9.327-3.257a10.778,10.778,0,0,1,4.093,4.02A11.04,11.04,0,0,1,22.7,11.155a11.128,11.128,0,0,1-1.491,5.686,10.97,10.97,0,0,1-4.093,4.066,11.368,11.368,0,0,1-5.767,1.5,11.37,11.37,0,0,1-5.766-1.5,10.97,10.97,0,0,1-4.093-4.066A11.128,11.128,0,0,1,0,11.155,11.04,11.04,0,0,1,1.491,5.484a10.777,10.777,0,0,1,4.093-4.02A11.566,11.566,0,0,1,11.351,0,11.564,11.564,0,0,1,17.118,1.464Z" transform="translate(136.002 0.076)"/>
    <path id="Path_3" data-name="Path 3" class="cls-1" d="M9.214,0,0,21.157H4.172l1.86-4.473H16.3l1.861,4.473h4.321L13.385,0Zm1.981,4.322,3.662,8.886H7.473Z" transform="translate(0 1)"/>
    <path id="Path_4" data-name="Path 4" class="cls-1" d="M13.329,0,3.969,10.549V0H0V21.157H3.969v-5.41l3.258-3.658,6.516,9.068h4.769L10.041,8.946,18.009,0Z" transform="translate(48 1)"/>
  </g>
</svg>
